src/assets/selectIcons/musica_1.svg

<svg xmlns="http://www.w3.org/2000/svg" viewBox="0 0 512 512"><path d="M0 0h512v512H0z"/><path fill="#fff" d="M25 49v38h30V49H25zm48 0v38h30V49H73zm48 0v38h30V49h-30zm48 0v38h30V49h-30zm48 0v38h30V49h-30zm48 0v38h30V49h-30zm48 0v38h30V49h-30zm48 0v38h30V49h-30zm48 0v38h30V49h-30zm48 0v38h30V49h-30zM25 105v30h462v-30H25zm0 48v264.824c7.76-8.745 17.86-18.918 30-30.197V153H25zm48 0v218.402c9.233-8.09 19.286-16.572 30-25.295V153H73zm48 0v178.73c9.595-7.523 19.615-15.16 30-22.843V153h-30zm48 0v142.795c5.223-3.735 10.506-7.468 15.87-11.19 4.66-3.233 9.38-6.454 14.13-9.666V153h-30zm48 0v109.975c9.866-6.444 19.878-12.792 30-18.998V153h-30zm48 0v80.164c9.938-5.843 19.95-11.515 30-16.97V153h-30zm48 0v53.67c10.002-5.138 20.014-10.032 30-14.63V153h-30zm48 0v31.078c10.065-4.28 20.08-8.24 30-11.805V153h-30zm48 0v13.2c10.142-3.19 20.155-5.935 30-8.18V153h-30zm78 16.24c-9.602.487-19.63 1.73-30 3.65V191h30v-21.76zm-48 7.56c-9.776 2.42-19.793 5.358-30 8.762V207h30v-30.2zm-48 15.167c-9.883 3.725-19.9 7.835-30 12.277V223h30v-31.033zm-48 20.51c-9.97 4.718-19.984 9.72-30 14.966V255h30v-42.523zm-48 24.656c-10.05 5.545-20.064 11.298-30 17.22V287h30v-49.867zm-48 28.176c-10.14 6.298-20.155 12.735-30 19.262V319h30v-53.69zm-48 31.424c-1.29.887-2.588 1.772-3.87 2.66-8.907 6.18-17.628 12.397-26.13 18.6V351h30v-54.266zm-48 34.62c-10.453 7.895-20.473 15.708-30 23.353V383h30v-51.646zm-48 38.087c-10.922 9.127-20.983 17.888-30 26.09V431h30v-61.56zm-48 43.08c-7.535 7.413-13.883 14.104-18.77 19.787-4.14 4.81-7.254 8.933-9.14 11.953-1.887 3.02-2.09 5.303-2.09 3.74v15h30v-50.48z"/></svg>

<?xml version="1.0" encoding="UTF-8" standalone="no"?>
<!DOCTYPE svg PUBLIC "-//W3C//DTD SVG 1.1//EN" "http://www.w3.org/Graphics/SVG/1.1/DTD/svg11.dtd">
<svg width="100%" height="100%" viewBox="0 0 512 512" version="1.1" xmlns="http://www.w3.org/2000/svg" xmlns:xlink="http://www.w3.org/1999/xlink" xml:space="preserve" xmlns:serif="http://www.serif.com/" style="fill-rule:evenodd;clip-rule:evenodd;stroke-linejoin:round;stroke-miterlimit:2;">
    <rect x="0" y="0" width="512" height="512" style="fill-rule:nonzero;"/>
    <path d="M25,49L25,87L55,87L55,49L25,49ZM73,49L73,87L103,87L103,49L73,49ZM121,49L121,87L151,87L151,49L121,49ZM169,49L169,87L199,87L199,49L169,49ZM217,49L217,87L247,87L247,49L217,49ZM265,49L265,87L295,87L295,49L265,49ZM313,49L313,87L343,87L343,49L313,49ZM361,49L361,87L391,87L391,49L361,49ZM409,49L409,87L439,87L439,49L409,49ZM457,49L457,87L487,87L487,49L457,49ZM25,153L25,417.824C32.76,409.079 42.86,398.906 55,387.627L55,153L25,153ZM73,153L73,371.402C82.233,363.312 92.286,354.83 103,346.107L103,153L73,153ZM121,153L121,331.73C130.595,324.207 140.615,316.57 151,308.887L151,153L121,153ZM169,153L169,295.795C174.223,292.06 179.506,288.327 184.87,284.605C189.53,281.372 194.25,278.151 199,274.939L199,153L169,153ZM217,153L217,262.975C226.866,256.531 236.878,250.183 247,243.977L247,153L217,153ZM265,153L265,233.164C274.938,227.321 284.95,221.649 295,216.194L295,153L265,153ZM313,153L313,206.67C323.002,201.532 333.014,196.638 343,192.04L343,153L313,153ZM361,153L361,184.078C371.065,179.798 381.08,175.838 391,172.273L391,153L361,153ZM409,153L409,166.2C419.142,163.01 429.155,160.265 439,158.02L439,153L409,153Z" style="fill:rgb(134,98,71);fill-rule:nonzero;"/>
    <rect x="25" y="105" width="462" height="30" style="fill:rgb(60,187,110);"/>
    <path d="M487,169.24L487,191L457,191L457,172.89C467.37,170.97 477.398,169.727 487,169.24ZM439,176.8L439,207L409,207L409,185.562C419.207,182.158 429.224,179.22 439,176.8ZM391,191.967L391,223L361,223L361,204.244C371.1,199.802 381.117,195.692 391,191.967ZM343,212.477L343,255L313,255L313,227.443C323.016,222.197 333.03,217.195 343,212.477ZM295,237.133L295,287L265,287L265,254.353C274.936,248.431 284.95,242.678 295,237.133ZM247,265.31L247,319L217,319L217,284.571C226.845,278.044 236.86,271.608 247,265.31ZM199,296.734L199,351L169,351L169,317.993C177.502,311.79 186.223,305.573 195.13,299.393C196.412,298.505 197.71,297.621 199,296.734ZM151,331.354L151,383L121,383L121,354.706C130.527,347.061 140.547,339.249 151,331.354ZM103,369.44L103,431L73,431L73,395.53C82.017,387.328 92.078,378.567 103,369.44ZM55,412.52L55,463L25,463L25,448C25,449.563 25.203,447.28 27.09,444.26C28.976,441.24 32.09,437.117 36.23,432.307C41.117,426.624 47.465,419.933 55,412.52Z" style="fill:rgb(190,126,77);"/>
</svg>
